frontend/public/svg/interface/shield-2.svg

<svg width="146" height="155" viewBox="0 0 146 155" fill="none" xmlns="http://www.w3.org/2000/svg">
<g clip-path="url(#clip0)">
<path d="M145.091 50.1112C145.379 68.7403 140.791 86.2175 132.101 102.642C126.391 113.433 119.552 123.426 110.732 131.926C102.684 139.795 93.678 146.616 83.9259 152.228C82.2691 153.131 80.548 153.908 78.7761 154.556C77.8548 154.961 76.8326 155.078 75.8436 154.894C74.854 154.709 73.9437 154.23 73.2291 153.52C72.4033 152.801 71.4221 152.286 70.3622 152.014C52.3701 147.395 38.2849 137.063 27.3007 122.32C15.7709 106.844 8.24196 89.4751 4.05191 70.7045C2.1396 62.1376 0.649273 53.4348 0.908062 44.5718C1.00948 38.7749 1.89178 33.0184 3.53106 27.458C3.87805 26.2898 4.39512 25.1791 5.0656 24.162C5.79776 23.0822 6.99222 22.4985 8.28097 23.1119C13.4594 25.5789 19.0662 25.6709 24.5821 25.9269C36.0533 26.4596 46.8984 23.7202 57.0757 18.5525C63.6398 15.2187 69.0845 10.5194 72.3558 3.68574C72.5808 3.17631 72.8415 2.68347 73.1361 2.21119C74.7252 -0.159405 77.7644 -0.358566 79.2254 2.02961C84.673 10.9382 92.9549 16.3245 101.983 20.8729C110.826 25.3282 120.185 26.3768 129.894 25.3856C132.105 25.1598 134.32 24.9863 136.539 24.8647C139.601 24.6974 140.854 25.4789 142.169 28.474C143.898 32.4679 144.878 36.7462 145.061 41.0954C145.211 44.0931 145.091 47.105 145.091 50.1112ZM77.4022 11.7575C76.9236 12.2602 76.5166 12.6231 76.1856 13.0457C72.7434 17.4498 68.4285 21.093 63.513 23.747C47.4056 32.4797 30.3431 34.6322 12.4879 30.5989C11.6699 30.4139 10.8409 30.2813 9.83761 30.0898C8.69002 36.1958 8.49457 42.443 9.25826 48.6091C9.9945 55.018 11.1408 61.373 12.6901 67.6351C16.8734 85.3292 24.6202 101.981 35.4558 116.571C45.6507 130.222 58.8144 139.557 75.5231 143.579C76.6375 143.848 77.5823 144.035 78.6786 143.353C88.1511 137.449 97.132 130.909 104.859 122.8C115.674 111.449 123.52 98.187 129.12 83.6131C134.879 68.6289 136.716 53.0166 135.759 37.0431C135.602 35.7851 135.368 34.538 135.058 33.3089C123.998 36.1093 113.525 34.7814 103.463 30.5938C93.4003 26.4062 84.3843 20.5632 77.4035 11.7575H77.4022Z" fill="black"/>
<path d="M68.9207 99.3176C70.7894 97.1418 72.3018 95.3697 73.8279 93.6061C82.0519 84.0709 90.8989 75.0933 100.31 66.7331C101.292 65.8291 102.379 65.0483 103.549 64.4074C104.439 63.9386 105.457 63.776 106.448 63.9447C107.439 64.1134 108.347 64.604 109.032 65.3407C110.222 66.7005 110.379 68.7448 109.255 70.6368C108.621 71.6827 107.863 72.6478 106.996 73.5114C103.239 77.3141 99.3382 80.9781 95.6611 84.8557C89.3793 91.4797 83.2035 98.2066 77.027 104.928C72.0768 110.316 69.9597 110.678 63.905 106.578C58.8394 103.148 53.8442 99.6152 48.9194 95.9792C46.9206 94.3817 45.0121 92.6741 43.2026 90.8643C42.7136 90.4084 42.2927 89.8848 41.9529 89.309C40.9814 87.6607 41.0809 85.8808 42.1888 84.6571C42.7045 84.0553 43.4039 83.6418 44.1785 83.479C44.9531 83.3161 45.7597 83.4138 46.4732 83.757C47.8608 84.448 49.1738 85.2803 50.3915 86.2403C56.4834 90.5256 62.5597 94.8278 68.9207 99.3176Z" fill="black"/>
</g>
<defs>
<clipPath id="clip0">
<rect width="145" height="155" fill="white" transform="translate(0.777344)"/>
</clipPath>
</defs>
</svg>

<svg xmlns="http://www.w3.org/2000/svg" width="146" height="155" fill="none" viewBox="0 0 146 155"><g fill="#000" clip-path="url(#a)"><path d="M145.091 50.111c.288 18.63-4.3 36.107-12.99 52.531-5.71 10.791-12.549 20.784-21.369 29.284a133.8 133.8 0 0 1-26.806 20.302 38 38 0 0 1-5.15 2.328 5.01 5.01 0 0 1-5.547-1.036 7 7 0 0 0-2.867-1.506c-17.992-4.619-32.077-14.951-43.061-29.694C15.77 106.844 8.242 89.475 4.05 70.705 2.14 62.137.65 53.435.909 44.572a64.5 64.5 0 0 1 2.623-17.114 12.4 12.4 0 0 1 1.535-3.296c.732-1.08 1.926-1.663 3.215-1.05 5.178 2.467 10.785 2.559 16.301 2.815 11.471.533 22.316-2.207 32.494-7.375 6.564-3.333 12.009-8.033 15.28-14.866q.338-.766.78-1.475c1.59-2.37 4.628-2.57 6.09-.181 5.447 8.908 13.729 14.295 22.757 18.843 8.843 4.455 18.202 5.504 27.911 4.513q3.316-.34 6.645-.521c3.062-.168 4.315.614 5.63 3.609a35.5 35.5 0 0 1 2.892 12.621c.15 2.998.03 6.01.03 9.016m-67.69-38.353c-.478.502-.885.865-1.216 1.288a40.5 40.5 0 0 1-12.673 10.701c-16.107 8.733-33.17 10.885-51.025 6.852-.818-.185-1.647-.318-2.65-.51a60.2 60.2 0 0 0-.58 18.52 151 151 0 0 0 3.432 19.026 133.65 133.65 0 0 0 22.766 48.936c10.195 13.651 23.358 22.986 40.067 27.008 1.115.269 2.06.456 3.156-.226 9.472-5.904 18.453-12.444 26.18-20.553 10.815-11.351 18.661-24.613 24.261-39.187 5.759-14.984 7.596-30.596 6.639-46.57a31 31 0 0 0-.701-3.734c-11.06 2.8-21.533 1.472-31.595-2.715-10.063-4.188-19.079-10.03-26.06-18.836"/><path d="M68.92 99.318c1.87-2.176 3.382-3.948 4.908-5.712a284 284 0 0 1 26.482-26.873 16.5 16.5 0 0 1 3.239-2.326 4.57 4.57 0 0 1 5.483.934c1.19 1.36 1.347 3.404.223 5.296a15 15 0 0 1-2.259 2.874c-3.757 3.803-7.658 7.467-11.335 11.345-6.282 6.624-12.457 13.35-18.634 20.072-4.95 5.388-7.067 5.75-13.122 1.65a450 450 0 0 1-14.986-10.599 69 69 0 0 1-5.716-5.115 7 7 0 0 1-1.25-1.555c-.972-1.648-.872-3.428.236-4.652a3.59 3.59 0 0 1 4.284-.9c1.388.691 2.7 1.523 3.919 2.483 6.091 4.286 12.168 8.588 18.529 13.078"/></g><defs><clipPath id="a"><path fill="#fff" d="M.777 0h145v155h-145z"/></clipPath></defs></svg>
